X: 1
P: Csebogar (in G)
O:
Z: John Chambers <jc@trillian.mit.edu>
M: 2/4
L: 1/8
K: G
"fast"\
|: "G"[BG][dB] [^c^A][dB] | [BG][dB] [^c^A][dB] | "C"[e2c2] [c2A2] | "Am"[A2E2] z2 |
| "D7"[AF][cA] [B^G][cA] | [AF][cA] [B^G][cA] | "G"[d2B2] [B2G2] | [G2B,2] z2 :|
"slower"\
|: "G"[BG][GD] [D2B,2] | [BG][GD] [D2B,2] | [BG]>[BG] [cA][BG] | "D7"[A2F2] z2 |
| "D7"[AF][FC] [D2C2] | [AF][FC] [D2C2] | [AF][AF] [BF][AF] | "G"[G2B,2] z2 :|
W: Accelerando towards end.
